X:1
T:Wir seh'n uns wieder
T:Ludwig Liebe, Op. 94, No. 2
T:Franz Xaver Seidl
T:Wir seh'n uns wieder
T:Dem „Straßburger Männergesangverein“ gewidmet.
T:CPDL - Creative Commons Attribution Non Commercial 3.0
C:Ludwig Liebe
Z:Franz Xaver Seidl
Z:CPDL - Creative Commons Attribution Non Commercial 3.0
%%score [ ( 1 2 ) ( 3 4 ) ]
L:1/8
Q:1/4=80
M:3/4
K:F
V:1 treble-8 nm="Tenor"
V:2 treble-8 
V:3 bass nm="Bass"
V:4 bass 
V:1
"^Mäßig (Im Volkston)"!p! c | c3 c dA | c>B B2 z!mf! d | d>G G3!p! d | d>A A2 z A | %5
w: 1.~Und|wenn es Gott nicht|an- ders will, er-|gieb dich drein und|har- re still, mein|
w: 2.~Und|wenn uns auch die|Fer- ne trennt, mein|Herz, das sich dein|ei- gen nennt, bleibt|
w: 3.~Im|Gar- ten ist ein|trau- ter Platz, du|weißt ihn wohl, mein|lie- ber Schatz, dort|
!<(! Gc!<)! fe d>e |!>(! d2!>)! c2 z!mf! c |[Q:1/4=84]"^Nach und nach belebter" g3 f ed | %8
w: Lieb, wir müs- * sen _|schei- den. Manch|Brief- lein schreib' ich|
w: ja bei dir _ zu _|Hau- se. All-|a- bends bei der|
w: un- ter blau- * em _|Flie- der. Ein|Vög- lein sitzt in|
 d>c c2"^più" z!f! c | a3 g fg | g>f f2 z |[Q:1/4=80]"^a tempo"!p! _e | d3!<(! d ^cd!<)! | %13
w: aus der Fern', ich|hab' kein' an- d're|je- mals gern,|das|sei dein Trost im|
w: Ster- ne Schein, das|kom- men die Ge-|dan- ken mein|in|dei- ne stil- le|
w: sei- nem Ast, da|lau- sche, wenn du|Sehn- sucht hast,|es|singt: „Wir seh'n uns|
!>(! f2 =c!>)!!<(!f g!<)!a |!f![Q:1/4=72]"^molto rall." (b2!>(! a2 g2)!>)! | f4 !fermata!z |] %16
w: Lei- den, dein Trost im|Lei- * *|den.|
w: Klau- se, in dei- ne|Klau- * *|se.|
w: wie- der! Wir seh'n uns|wie- * *|der!“|
V:2
 A | A3 A AA | D>G G2 x B | B>G G3 B | A>F F2 x F | EG c2 =B2 | =B2 G2 x c | c3 c cG | G>G G2 x c | %9
 _e3 e ee | _e>e e2 x | c | cB A^G GG | A2 Ac ee | (f4 ed) | c4 x |] %16
V:3
!p! F, | F,3 C, F,D, | G,>D, D,2 z!mf! F, | F,>E, E,3!p! F, | F,>C, C,2 z C, | %5
!<(! C,E,!<)! A,G, F,>G, |!>(! F,2!>)! E,2 z!mf! C, | _B,3 B, B,B, | B,>B, B,2"^più" z!f! C, | %9
 C3 C CC | C>C C2 z |!p! F, | F,3!<(! F, F,F,!<)! |!>(! F,2 F,!>)!!<(!A, C!<)!^C | %14
!f! (D2!>(! =C2 B,2)!>)! | A,4 !fermata!z |] %16
V:4
 F,, | F,,3 F,, F,,F,, | G,,>G,, G,,2 x G,, | C,>C, C,3 C, | F,>F,, F,,2 x F,, | G,,G,, G,,2 G,,2 | %6
 G,,2 C,2 x C, | E,3 F, G,F, | F,>E, E,2 x C, | F,3 G, A,B, | B,>A, A,2 x | A,, | %12
 B,,3 B,, =B,,B,, | C,2 C,C, B,,A,, | (G,,2 A,,B,, C,2) | F,4 x |] %16

